assets/images/notification.svg

<svg fill="none" height="22" viewBox="0 0 22 22" width="22" xmlns="http://www.w3.org/2000/svg"><g stroke="#121212" stroke-miterlimit="10" stroke-width="1.5"><path d="m11.0183 2.66748c-3.03413 0-5.49996 2.46583-5.49996 5.5v2.64912c0 .5592-.23834 1.4117-.5225 1.8884l-1.05417 1.7508c-.65083 1.0817-.20167 2.2825.99 2.6858 3.95083 1.32 8.21333 1.32 12.16413 0 1.1092-.3666 1.595-1.6775.99-2.6858l-1.0541-1.7508c-.275-.4767-.5134-1.3292-.5134-1.8884v-2.64912c0-3.025-2.475-5.5-5.5-5.5z" stroke-linecap="round"/><path d="m12.7142 2.93332c-.2842-.0825-.5775-.14667-.88-.18333-.88-.11-1.7234-.04584-2.51169.18333.26583-.67833.92579-1.155 1.69579-1.155s1.43.47667 1.6959 1.155z" stroke-linecap="round" stroke-linejoin="round"/><path d="m13.7683 17.4716c0 1.5125-1.2375 2.75-2.75 2.75-.7516 0-1.44829-.3116-1.94329-.8066s-.80667-1.1917-.80667-1.9434"/></g></svg>

<svg width="22" height="22" viewBox="0 0 22 22" fill="none" xmlns="http://www.w3.org/2000/svg">
<path d="M11.0183 2.66748C7.98417 2.66748 5.51834 5.13331 5.51834 8.16748V10.8166C5.51834 11.3758 5.28 12.2283 4.99584 12.705L3.94167 14.4558C3.29084 15.5375 3.74 16.7383 4.93167 17.1416C8.8825 18.4616 13.145 18.4616 17.0958 17.1416C18.205 16.775 18.6908 15.4641 18.0858 14.4558L17.0317 12.705C16.7567 12.2283 16.5183 11.3758 16.5183 10.8166V8.16748C16.5183 5.14248 14.0433 2.66748 11.0183 2.66748Z" stroke="#121212" stroke-width="1.5" stroke-miterlimit="10" stroke-linecap="round"/>
<path d="M12.7142 2.93332C12.43 2.85082 12.1367 2.78665 11.8342 2.74999C10.9542 2.63999 10.1108 2.70415 9.32251 2.93332C9.58834 2.25499 10.2483 1.77832 11.0183 1.77832C11.7883 1.77832 12.4483 2.25499 12.7142 2.93332Z" stroke="#121212" stroke-width="1.5" stroke-miterlimit="10" stroke-linecap="round" stroke-linejoin="round"/>
<path d="M13.7683 17.4716C13.7683 18.9841 12.5308 20.2216 11.0183 20.2216C10.2667 20.2216 9.57001 19.91 9.07501 19.415C8.58001 18.92 8.26834 18.2233 8.26834 17.4716" stroke="#121212" stroke-width="1.5" stroke-miterlimit="10"/>
</svg>
